dist/svgs/cards-full.svg

<!-- Generated by IcoMoon.io -->
<svg version="1.1" xmlns="http://www.w3.org/2000/svg" width="24" height="24" viewBox="0 0 24 24">
<title>cards-full</title>
<path d="M24 11v-10c0-0.553-0.447-1-1-1h-10v11h11z"></path>
<path d="M11 0h-10c-0.553 0-1 0.447-1 1v10h11v-11z"></path>
<path d="M0 13v10c0 0.553 0.447 1 1 1h10v-11h-11z"></path>
<path d="M13 24h10c0.553 0 1-0.447 1-1v-10h-11v11z"></path>
</svg>

<svg xmlns="http://www.w3.org/2000/svg" width="24" height="24"><path d="M24 11V1a1 1 0 0 0-1-1H13v11h11zM11 0H1a1 1 0 0 0-1 1v10h11V0zM0 13v10a1 1 0 0 0 1 1h10V13H0zM13 24h10a1 1 0 0 0 1-1V13H13v11z"/></svg>
